picto/tickets.svg

<svg class="color-immutable" width="24" height="24" viewBox="0 0 24 24" fill="none" xmlns="http://www.w3.org/2000/svg"><g clip-path="url(#a)"><path d="M0 22.5v-21C0 .675.675 0 1.5 0h21c.825 0 1.5.675 1.5 1.5v21c0 .825-.675 1.5-1.5 1.5h-21C.675 24 0 23.325 0 22.5Z" fill="#2D327D"/><path fill-rule="evenodd" clip-rule="evenodd" d="M7.5 3v3.75h5.25v1.5H15V9h-2.25v.75H15v.75h-2.25v6h3.75V3h-9ZM15 6h-.449V4.527h-.529v-.326c.11-.003.199-.014.269-.034a.566.566 0 0 0 .19-.095c.083-.064.139-.171.168-.322H15V6Z" fill="#fff"/><path fill-rule="evenodd" clip-rule="evenodd" d="M3 7.5V21h9V7.5H3Zm7.5 7.5h-6v-.75h6V15Zm0-1.5h-6v-.75h6v.75Zm0-3H8.88c0-.122.02-.238.059-.349a.836.836 0 0 1 .167-.286c.055-.062.12-.122.195-.18.074-.058.222-.166.444-.321a.867.867 0 0 0 .226-.209.396.396 0 0 0 .065-.225.333.333 0 0 0-.087-.239.298.298 0 0 0-.229-.092c-.232 0-.351.167-.358.5H8.93V9.05c0-.273.076-.484.229-.634a.787.787 0 0 1 .577-.219c.209 0 .384.059.524.178a.646.646 0 0 1 .229.521.715.715 0 0 1-.183.492.847.847 0 0 1-.112.108 9.347 9.347 0 0 1-.275.196 4.56 4.56 0 0 0-.304.228 1.169 1.169 0 0 0-.17.18H10.5v.4Z" fill="#fff"/></g><defs><clipPath id="a"><path fill="#fff" d="M0 0h24v24H0z"/></clipPath></defs></svg>

<svg class="color-immutable" width="24" height="24" viewBox="0 0 24 24" fill="none" xmlns="http://www.w3.org/2000/svg"><path d="M0 22.5V1.5C0 0.675 0.675 0 1.5 0H22.5C23.325 0 24 0.675 24 1.5V22.5C24 23.325 23.325 24 22.5 24H1.5C0.675 24 0 23.325 0 22.5Z" fill="#2D327D"/><path fill-rule="evenodd" clip-rule="evenodd" d="M7.5 3V6.75H12.75V8.25H15V9H12.75V9.75H15V10.5H12.75V16.5H16.5V3H7.5ZM15 6H14.551V4.527H14.391H14.231H14.076H14.022V4.201C14.132 4.198 14.221 4.187 14.291 4.167C14.36 4.147 14.424 4.116 14.481 4.072C14.564 4.008 14.62 3.901 14.649 3.75H15V6Z" fill="white"/><path fill-rule="evenodd" clip-rule="evenodd" d="M3 7.5V21H12V7.5H3ZM10.5 15H4.5V14.25H10.5V15ZM10.5 13.5H4.5V12.75H10.5V13.5ZM10.5 10.5H8.88C8.88 10.378 8.9 10.262 8.939 10.151C8.978 10.04 9.034 9.945 9.106 9.865C9.161 9.803 9.226 9.743 9.301 9.685C9.375 9.627 9.523 9.519 9.745 9.364C9.853 9.289 9.928 9.219 9.971 9.155C10.014 9.09 10.036 9.016 10.036 8.93C10.036 8.832 10.007 8.752 9.949 8.691C9.891 8.629 9.815 8.599 9.72 8.599C9.488 8.599 9.369 8.766 9.362 9.099H8.93C8.93 9.077 8.93 9.061 8.93 9.05C8.93 8.777 9.006 8.566 9.159 8.416C9.307 8.27 9.5 8.197 9.736 8.197C9.945 8.197 10.12 8.256 10.26 8.375C10.413 8.504 10.489 8.678 10.489 8.896C10.489 9.087 10.428 9.251 10.306 9.388C10.266 9.433 10.229 9.469 10.194 9.496C10.159 9.523 10.067 9.589 9.919 9.692C9.777 9.792 9.676 9.868 9.615 9.92C9.554 9.972 9.497 10.032 9.445 10.1H10.5V10.5Z" fill="white"/></svg>
